X: 1550
T: Humpty Dee
B: australian traditional tunes wiki
M:2/4
L:1/8
R: Set Tune
Q: 1/4=100
K:D
V:1 
|:"D"A>B d>e|f2f2|"G"(3ddd (3dcB|"D"A3A|"A7"c>B c>B|c3A|(3ABA (3cde|"D"f4|
"D"A>B d>e|f2f2|"G"(3ddd (3dcB|"D"A3A|"A7"c>B c>B|e>c "Em"B>A|"A7"(3ABA (3cde|"D"d4:|
|:"D"d>f e>d|"A7"c>e d>c|"D"(3ABA F>B|"D"A4|"A7"(3ABA F>B|A2A2|"D"(3ABA F>B|"D"A4|
"D"d>f e>d|"A7"c>e d>c|"D"(3ABA F>B|"D"A4|"A7"A>B (3cBA|c>d (3cBA|(3ABc (3edc|"D"d4:|
% abcbook-tune_id 6342d53ac7453bdb878149c3


% abcbook-boost 0
% abcbook-tablature 
% abcbook-transpose 
% abcbook-lastupdated 1665324370563
% abcbook-soundfonts 
% abcbook-repeats 1
% NFF Book 2016

